!!!COM: Corelli, Arcangelo
!!!OTL: Sonata da camera
!!!OPS: 4
!!!ONM: 3
!!!OMV: 3
!!!OMD: Sarabanda: Largo
**kern	**fb	**kern	**kern	**kern
*part4	*part4	*part3	*part2	*part1
*staff4	*	*staff3	*staff2	*staff1
*clefF4	*	*clefF4	*clefG2	*clefG2
*k[f#c#]	*	*k[f#c#]	*k[f#c#]	*k[f#c#]
*D:	*	*D:	*D:	*D:
*M3/2	*	*M3/2	*M3/2	*M3/2
=1	=1	=1	=1	=1
2A	.	2A	2cc#	2a
=	=	=	=	=
4G#X	6	4G#X	2.b	2.ee
4F#	.	4F#	.	.
4G#	.	4G#	.	.
4E	.	4E	4cc#	4ee
4A	.	4A	(4a	(4cc#
4AA	.	4AA	4b)	4dd)
=	=	=	=	=
4E	#	4E	1g#X	2b
4D#X	.	4D#X	.	.
4E	.	4E	.	2e
4F#	.	4F#	.	.
4G#X	6	4G#X	2ee	(4b
4E	.	4E	.	4cc#)
=	=	=	=	=
4F#	7	4F#	2cc#	2.a
4G#X	.	4G#X	.	.
4F#	#6\	4F#	(4dd#X	.
4E	.	4E	4ee)	4cc#
4D#X	6	4D#X	2ff#	(4b
4BB	.	4BB	.	4a)
=	=	=	=	=
4E	9 #	4E	2ff#	2.g#X
4D#X	.	4D#X	.	.
4E	8	4E	2ee	.
4F#	.	4F#	.	4b
4G#X	6	4G#X	[2b	(4ee
4E	.	4E	.	4dd)
=	=	=	=	=
4A	9	4A	2b]	2.cc#
4G#X	.	4G#X	.	.
4A	8	4A	2e	.
4B	.	4B	.	4cc#
4c#	6	4c#	2a	4ff#
4A	.	4A	.	4ee
=	=	=	=	=
4B	7 #	4B	2.a	2.dd#X
4c#	.	4c#	.	.
4B	7 #	4B	.	.
4A	.	4A	4f#	4b
4G#X	6	4G#X	2g#X	[2ee
4E	.	4E	.	.
=	=	=	=	=
4A	6 5	4A	2ee	4ee]
4F#	.	4F#	.	4ff#
2B	4	2B	2.ee	2.ff#
2BB	#	2BB	.	.
.	.	.	4dd#X	4ee
=	=	=	=	=
1E	.	1E	1ee	1ee
2E	#	2E	2g#X	(4b
.	.	.	.	4cc#)
==	==	==	==	==
4F#	6	4F#	1a	2.dd
4E	.	4E	.	.
4F#	.	4F#	.	.
4A	.	4A	.	4dd
4G#X	6	4G#X	2b	(4ee
4B	.	4B	.	4b)
=	=	=	=	=
4A	.	4A	2.e	2.cc#
4G#X	.	4G#X	.	.
4A	.	4A	.	.
4c#	.	4c#	4e	4cc#
4d	6	4d	2a	[2ff#
4A	.	4A	.	.
=	=	=	=	=
4B	#6\ 5	4B	2ff#	4ff#]
4G#X	.	4G#X	.	4gg#X
4c#	4	4c#	2.ff#	2.gg#
4B	.	4B	.	.
4c#	#	4c#	.	.
4C#	.	4C#	4ee#X	4ff#
=	=	=	=	=
4F#	.	4F#	1ff#	1ff#
4E#X	.	4E#X	.	.
4F#	.	4F#	.	.
4G#X	.	4G#X	.	.
4A	.	4A	(4eeni	(4cc#
4F#	.	4F#	4a)	4dd)
=	=	=	=	=
4G#X	6	4G#X	2.b	2.ee
4F#	.	4F#	.	.
4G#	.	4G#	.	.
4Eni	.	4Eni	4cc#	4ee
4A	.	4A	(4b	(4dd
4AA	.	4AA	4a)	4cc#)
=	=	=	=	=
4E	#	4E	2.g#X	2.b
4F#	.	4F#	.	.
4E	.	4E	.	.
4D	.	4D	4b	4ee
4C#	6	4C#	2cc#	(4aa
4AA	.	4AA	.	4cc#)
=	=	=	=	=
4D	6 5	4D	2a	(4ff#
4BB	.	4BB	.	4b)
2E	5 4	2E	2.a	2.b
2EE	#	2EE	.	.
.	.	.	4g#X	4a
=	=	=	=	=
1AA	.	1AA	1a	1a
==	==	==	==	==
*-	*-	*-	*-	*-
!!!system-decoration: [{s1,s2},s3,s4]
!!!YEM: CC BY-NC-SA 4.0; CCARH; DCML
!!!RDF**kern: i = editorial accidental